!!!!SEGMENT: 028_1-12-1a-C-004.krn
!!!COM: Chopin, Fryderyk
!!!OTL: Prelude no. 4
!!!OPS: Op. 28
!!!PTL: 24 | PRÉLUDES | POUR | le Piano
!!!PPR: Catelin
!!!PPP: Paris
!!!NIFC-rismID: 1001065068
!!!NIFC-shelfmark: PL-Wbfc 6583/n
!!!OMD: Largo.
**kern	**kern	**dynam
*part1	*part1	*part1
*staff2	*staff1	*S
*clefF4	*clefG2	*
*k[f#]	*k[f#]	*
*e:	*e:	*
*I"IV.	*	*
*M2/2	*M2/2	*
*met(c|)	*met(c|)	*
*MM63	*MM63	*
!	!LO:TX:i:B:b:t=espress.	!LO:DY:rj
4r	(>8.BL	p
.	16bJk	.
=1	=1	=1
(>8eL 8B 8G	2.b	.
8e 8B 8G	.	.
8e 8B 8G	.	.
8eJ 8B 8G	.	.
8eL 8B 8G	.	.
8e 8B 8G	.	.
8e 8B 8G	4cc	.
8eJ 8B 8G	.	.
=2	=2	=2
8eL 8A 8F#	2.b	.
8e 8A 8F#	.	.
8e 8A 8F#	.	.
8eJ 8A 8F#	.	.
8e-XL 8A 8F#	.	.
8e- 8A 8F#	.	.
8e- 8A 8F#	4cc	.
8e-J 8A 8F#	.	.
=3	=3	=3
8e-XL 8A 8Fn	2.b	.
8e- 8A 8F	.	.
8e- 8A 8F	.	.
8e-J 8A 8F	.	.
8dL 8A 8F	.	.
8d 8A 8F	.	.
8d 8G#X 8F	4cc	.
8dJ 8G# 8F	.	.
!!LO:LB:g=original
=4	=4	=4
8dL 8G#X 8E	2.b	.
8d 8G# 8E	.	.
8d 8G# 8E	.	.
8dJ 8G# 8E	.	.
8dL 8Gn 8E	.	.
8d 8G 8E	.	.
8c#X 8G 8E	4b-X\	.
8c#J 8G 8E	.	.
=5	=5	=5
8cnL 8G 8E	2.a	.
8c 8G 8E	.	.
8c 8G 8E	.	.
8cJ 8G 8E	.	.
8cL 8F# 8E	.	.
8c 8F# 8E	.	.
8c 8F# 8E	4bn/	.
8cJ 8F# 8E	.	.
=6	=6	=6
8cL 8F# 8E	2.a	.
8c 8F# 8E	.	.
8c 8F# 8E	.	.
8cJ 8F# 8E	.	.
8cL 8F# 8D#X	.	.
8c 8F# 8D#	.	.
8c 8F# 8D#	4b/	.
8cJ 8F# 8D#	.	.
=7	=7	=7
8cL 8F# 8Dn	2.a	.
8c 8F# 8D	.	.
8c 8F# 8D	.	.
8cJ 8F# 8D	.	.
8cL 8F# 8D	.	.
8c 8F# 8D	.	.
8c 8F# 8D	8.b/L	.
8cJ 8F# 8D	.	.
.	16a/Jk	.
!!LO:LB:g=original
=8	=8	=8
8cL 8Fn 8D	2.a)	.
8c 8F 8D	.	.
8c 8F 8D	.	.
8cJ 8F 8D	.	.
8BL 8F 8D	.	.
8B 8F 8D	.	.
8B 8F 8D	[4g#X	>
8BJ 8F 8D	.	.
=9	=9	=9
8BL 8E 8C	4g#X]	]
8B 8E 8C	.	.
8A 8E 8C	(>8aL	<
8AJ 8E 8C	8bJ	[
8AL 8E 8C	8ddL	>
8A 8E 8C	8cc	.
8A 8E 8C	8e	.
8AJ 8E 8C	8aJ	]]
=10	=10	=10
8AL 8E 8BB	2.f#)	.
8A 8E 8BB	.	.
8A 8D#X 8BB	.	.
8AJ 8D# 8BB	.	.
8AL 8E 8C	.	.
8A 8E 8C	.	.
8A 8E 8C	(<4a	.
8AJ 8E 8C	.	.
=11	=11	=11
8AL 8D#X 8BB	2.f#)	.
8A 8D# 8BB	.	.
8A 8D# 8BB	.	.
8AJ 8D# 8BB	.	.
8AL 8E 8C	.	.
8A 8E 8C	.	.
.	8qqb/	.
!	!LO:TX:t=P:problem: w pierwodruku brak początku łuku	!
8A 8E 8C	(<4a	.
8AJ 8E 8C	.	.
!!LO:LB:g=original
=12	=12	=12
4A) 4D#X 4BB	8gL	.
.	8f#	.
4r	8c^>	<
.	8BJ	.
2r	8d#XL	.
.	8f#	.
!	!LO:TUP:b	!
!	!LO:TX:t=P:note-head-side tuplet number:problem	!
.	12ddn	.
.	12cc	.
.	12bJ)	[
=13	=13	=13
(>8eL 8B 8G	(>\2.b	.
8e 8B 8G	.	.
8e 8B 8G	.	.
8eJ 8B 8G	.	.
8eL 8B 8G	.	.
8e 8B 8G	.	.
8e 8B 8G	4cc	.
8eJ 8B 8G	.	.
=14	=14	=14
8eL 8A 8F#	2.b\	.
8e 8A 8F#	.	.
8e 8A 8F#	.	.
8eJ 8A 8F#	.	.
8e-XL 8A 8Fn	.	.
8e- 8A 8F	.	.
8e- 8A 8F	4cc	.
8e-J 8A 8F	.	.
=15	=15	=15
8e-XL 8A-X 8Fn	2.b	.
8e- 8A- 8F	.	.
8d 8A- 8F	.	.
8dJ 8A- 8F	.	.
8dL 8G#X 8En	.	.
8d 8G# 8E	.	.
8d 8G# 8E	4cc	.
8dJ 8G# 8E	.	.
!!LO:LB:g=original
=16	=16	=16
8dL 8Gn 8E	8.bL	<
8d 8G 8E	.	.
.	16a#XJk	.
!	!LO:TX:t=P:problem: mordent po prawej od 4a#m	!
8c#X 8G 8E	4a#m	.
8c#J 8G 8E	.	.
!	!LO:TX:i:b:B:t=stretto._:dur=7qe:ext=ud:problem:text with extention lines	!
8A#XL 8E 8C#X	4gg	[>
8A# 8E 8C#	.	.
8An 8E 8Cn	8.ff#L	.
8AJ 8E 8C	.	.
.	16eeJk	]
=17	=17	=17
*ped	*	*
!LO:TX:t=P:mixed beam:problem	!	!
8BB/L) 8BBB/	8eeL	f
(>\8a 8f#\ 8c\ 8A\	8dd#X	.
8a\ 8f#\ 8c\ 8A\	8ccc	.
*Xped	*	*
8a\J 8f#\ 8c\ 8A\	8dd#J	.
8f#L 8d#X 8B 8G	8dd#L	.
8e 8B 8G	8ee	.
8e 8B 8G	8gg	.
8eJ 8B 8G	8bJ	.
=18	=18	=18
8eL 8c 8A	8ddL	.
8eJ 8c 8A	8cc	.
*ped	*	*
!	!LO:TUP:a	!
!	!LO:TX:t=P:note-head-side tuplet number:problem	!
8AAL	12ee	.
.	12e	.
8cJ 8F# 8E	.	.
*Xped	*	*
.	12aJ	.
8BL 8E 8BB	4.f#	.
8B 8E 8BB	.	>
8A 8E 8C	.	.
8AJ 8E 8C	8a	.
=19	=19	=19
!	!	!LO:DY:rj
8BL 8E 8BB	2.f#)	p
8B 8E 8BB	.	.
8B 8E 8BB	.	.
8BJ 8E 8BB	.	.
8AL 8E 8C	.	.
8A 8E 8C	.	.
.	8qqb/	.
8A 8E 8C	4a	.
8AJ 8E 8C	.	.
!!LO:LB:g=original
=20	=20	=20
8BL 8E 8BB	(>[<2.f#	.
8B 8E 8BB	.	.
8B 8E 8BB	.	.
8BJ 8E 8BB	.	.
8BL 8D#X 8BB	.	.
8B 8D# 8BB	.	.
8A 8D# 8BB	8.f#L]	<
8AJ 8D# 8BB	.	.
.	16eJk	.
=21	=21	=21
8GL 8C	2.e	[
8G 8C	.	.
8G 8C	.	.
8GJ 8C	.	.
8B-XL 8C	.	.
!	!LO:TX:i:B:b:t=smorz&colon;	!
8B- 8C	.	.
8A 8E 8C	4f#	.
8AJ 8E 8C	.	.
=22	=22	=22
8AL 8E 8BB	2.e	.
8A 8E 8BB	.	.
8G#X 8E 8BB	.	.
8G#J 8E 8BB	.	.
8GnL 8E 8BB	.	.
8G 8E 8BB	.	.
8G 8E 8BB	4f#	.
8GJ 8E 8BB	.	.
=23	=23	=23
2G) 2C 2BB-X	2e)	.
2r;	2r;	.
=24	=24	=24
!	!	!LO:DY:rj
(<2BBn\ 2BBB\	(>2e 2B< 2F#< 2E<	pp
2BB\ 2FF#\ 2BBB\	2d#X 2B< 2F#< 2D#X<	.
=25	=25	=25
1EE;< 1EEE)	1e;>) 1B< 1G< 1E<	.
!!LO:PB:g=original
==	==	==
*-	*-	*-
!!!RDF**kern: > = above
!!!RDF**kern: < = below
!!!RDF**kern: N = linked
!!!RDF**dynam: > = "dim:", fontstyle = "italic"
!!!RDF**dynam: < = "cres:", fontstyle = "italic"
!!!ENC: Jędrzej Mróz
!!!END: 2019-04-25
!!!EED: Mateusz Mrugas
!!!EST: revision finished 2019-05-06
!!!EED2: Jędrzej Mróz
!!!EST: revision finished 2020--04-21
!!!rism-genre: Prelude
!!!rism-key: E minor
!!!rism-opus: op. 28, no. 4
!!!rism-title: Prelude in E minor op. 28, no. 4
!!!rism-permalink: https://opac.rism.info/search?id=1001065068&View=rism
!!!rism-773a-OPR: 1001065063
!!!rism-parent-permalink: https://opac.rism.info/search?id=1001065063&View=rism
